X: 34654
T: Road To Boston
R: polka
M: 2/4
K: Dmajor
|:f2 fe/f/|gf ed|cd ef|dA FA|
f2 fe/f/|gf ed|cd ef|d2 d2:|
|:a2 ag/a/|ba gf|g2 gf/g/|ag fe|
f2 fe/f/|gf ed|cd ef|d2 d2:|
|:f4 f2 ef|g2 f2 e2 d2|c2 d2 e2 f2|d2 A2 F2 A2|
f4 f2 ef|g2 f2 e2 d2|c2 d2 e2 f2|d4 d4:|
|:a4 a2 ga|b2 a2 g2 f2|g4 g2 fg|a2 g2 f2 e2|
f4 f2 ef|g2 f2 e2 d2|c2 d2 e2 f2|d4 d4:|

